brandFactory_export/1.Light/Compartir_1Light.svg

<?xml version="1.0" encoding="UTF-8"?>
<svg width="24px" height="24px" viewBox="0 0 24 24" version="1.1" xmlns="http://www.w3.org/2000/svg" xmlns:xlink="http://www.w3.org/1999/xlink">
    <title>1.Light/Compartir_1Light</title>
    <defs>
        <filter id="filter-1">
            <feColorMatrix in="SourceGraphic" type="matrix" values="0 0 0 0 0.360784 0 0 0 0 0.713725 0 0 0 0 0.082353 0 0 0 1.000000 0"></feColorMatrix>
        </filter>
    </defs>
    <g id="Symbols" stroke="none" stroke-width="1" fill="none" fill-rule="evenodd">
        <g id="Compartir_1Light" filter="url(#filter-1)">
            <g>
                <path d="M15.7378151,13.4453782 C14.9411765,13.4453782 14.3092437,13.6638655 13.8554622,14.0941176 C13.6941176,14.2453782 13.5630252,14.4235294 13.4554622,14.6184874 L9.65714286,12.7193277 C9.73781513,12.4369748 9.77815126,12.1243697 9.77815126,11.7781513 C9.77815126,11.4352941 9.73781513,11.1226891 9.6605042,10.8436975 L13.4621849,8.94453782 C13.5563025,9.11596639 13.6705882,9.27058824 13.805042,9.40840336 C14.2621849,9.87563025 14.9109244,10.1109244 15.7411765,10.1109244 C16.5714286,10.1109244 17.2201681,9.87563025 17.6773109,9.40840336 C18.1210084,8.95462185 18.3462185,8.3092437 18.3462185,7.49579832 C18.3462185,6.64537815 18.1042017,5.98319328 17.6235294,5.52941176 C17.1697479,5.09915966 16.5378151,4.88067227 15.7411765,4.88067227 C14.9445378,4.88067227 14.312605,5.09915966 13.8588235,5.52941176 C13.3781513,5.98655462 13.1361345,6.6487395 13.1361345,7.49579832 C13.1361345,7.79159664 13.1663866,8.0605042 13.2235294,8.31260504 L9.39495798,10.2285714 C9.30084034,10.0739496 9.18655462,9.93613445 9.05882353,9.81512605 C8.60504202,9.38487395 7.97310924,9.16638655 7.17647059,9.16638655 C6.37983193,9.16638655 5.74789916,9.38487395 5.29411765,9.81512605 C4.81344538,10.2722689 4.57142857,10.9344538 4.57142857,11.7815126 C4.57142857,12.594958 4.79663866,13.2403361 5.24033613,13.6941176 C5.69747899,14.1613445 6.34621849,14.3966387 7.17647059,14.3966387 C8.00672269,14.3966387 8.65546218,14.1613445 9.11260504,13.6941176 C9.21680672,13.5865546 9.31092437,13.4689076 9.39159664,13.3411765 L13.2235294,15.2571429 C13.1663866,15.502521 13.1361345,15.7747899 13.1361345,16.0638655 C13.1361345,16.8773109 13.3613445,17.5226891 13.805042,17.9764706 C14.2621849,18.4436975 14.9109244,18.6789916 15.7411765,18.6789916 C16.5714286,18.6789916 17.2201681,18.4436975 17.6773109,17.9764706 C18.1210084,17.5226891 18.3462185,16.8773109 18.3462185,16.0638655 C18.3462185,15.2134454 18.1042017,14.5512605 17.6235294,14.097479 C17.1663866,13.6638655 16.5344538,13.4453782 15.7378151,13.4453782 L15.7378151,13.4453782 Z M15.7378151,5.55294118 C17.0218487,5.55294118 17.6705882,6.20840336 17.6705882,7.49579832 C17.6705882,8.12773109 17.5092437,8.61512605 17.1932773,8.93781513 C16.8672269,9.27058824 16.3798319,9.43865546 15.7378151,9.43865546 C15.0957983,9.43865546 14.6084034,9.27058824 14.2823529,8.93781513 C13.9663866,8.61176471 13.805042,8.12773109 13.805042,7.49579832 C13.805042,6.20840336 14.4571429,5.55294118 15.7378151,5.55294118 Z M7.17310924,13.7243697 C6.53109244,13.7243697 6.04369748,13.5563025 5.71764706,13.2235294 C5.40168067,12.897479 5.24033613,12.4134454 5.24033613,11.7815126 C5.24033613,10.4907563 5.88907563,9.83865546 7.17310924,9.83865546 C8.05042017,9.83865546 8.63193277,10.1445378 8.91092437,10.7529412 C8.91764706,10.7798319 8.92436975,10.8067227 8.93781513,10.8336134 C8.94453782,10.8436975 8.9512605,10.8537815 8.95798319,10.8672269 C9.05546218,11.1260504 9.10588235,11.4319328 9.10588235,11.7848739 C9.10588235,12.1546218 9.05210084,12.4705882 8.94117647,12.7394958 C8.94117647,12.7428571 8.93781513,12.7428571 8.93781513,12.7462185 C8.93109244,12.7630252 8.92436975,12.7764706 8.91764706,12.7932773 C8.84369748,12.9613445 8.74621849,13.1092437 8.62521008,13.2302521 C8.30252101,13.5563025 7.81512605,13.7243697 7.17310924,13.7243697 L7.17310924,13.7243697 Z M17.1932773,17.5058824 C16.8672269,17.8386555 16.3798319,18.0067227 15.7378151,18.0067227 C15.0957983,18.0067227 14.6084034,17.8386555 14.2823529,17.5058824 C13.9663866,17.1798319 13.805042,16.6957983 13.805042,16.0638655 C13.805042,15.7411765 13.8453782,15.4588235 13.9260504,15.2134454 C13.9327731,15.1966387 13.9394958,15.1831933 13.9428571,15.1663866 C14.194958,14.4705882 14.7966387,14.1176471 15.7378151,14.1176471 C17.0218487,14.1176471 17.6705882,14.7731092 17.6705882,16.0605042 C17.6705882,16.6957983 17.5092437,17.1798319 17.1932773,17.5058824 Z" fill="#313235" fill-rule="nonzero"></path>
                <path d="M11.7781513,23.5428571 C8.01008403,23.5428571 5.09579832,22.5747899 3.11260504,20.6655462 C1.05546218,18.6823529 0.0134453782,15.6941176 0.0134453782,11.7781513 C0.0134453782,7.86554622 1.05546218,4.87394958 3.11260504,2.8907563 C5.09243697,0.981512605 8.01008403,0.0134453782 11.7781513,0.0134453782 C15.5462185,0.0134453782 18.4605042,0.981512605 20.4436975,2.8907563 C22.5008403,4.87394958 23.5428571,7.86218487 23.5428571,11.7781513 C23.5428571,15.6941176 22.5008403,18.6823529 20.4436975,20.6655462 C18.4605042,22.5747899 15.5462185,23.5428571 11.7781513,23.5428571 Z M11.7781513,0.685714286 C8.18823529,0.685714286 5.43193277,1.58991597 3.57983193,3.37478992 C1.6605042,5.22352941 0.685714286,8.05378151 0.685714286,11.7781513 C0.685714286,15.502521 1.6605042,18.3327731 3.57983193,20.1815126 C5.43193277,21.9663866 8.19159664,22.8705882 11.7781513,22.8705882 C15.3647059,22.8705882 18.1243697,21.9663866 19.9764706,20.1815126 C21.8957983,18.3327731 22.8705882,15.502521 22.8705882,11.7781513 C22.8705882,8.05378151 21.8957983,5.22352941 19.9764706,3.37478992 C18.1243697,1.59327731 15.3647059,0.685714286 11.7781513,0.685714286 Z" fill="#313235" fill-rule="nonzero"></path>
            </g>
        </g>
    </g>
</svg>

<svg width="24" height="24" viewBox="0 0 24 24" xmlns="http://www.w3.org/2000/svg"><defs><filter id="a"><feColorMatrix in="SourceGraphic" values="0 0 0 0 0.360784 0 0 0 0 0.713725 0 0 0 0 0.082353 0 0 0 1.000000 0"/></filter></defs><g filter="url(#a)" fill="none" fill-rule="evenodd"><g fill="#313235" fill-rule="nonzero"><path d="M15.738 13.445c-.797 0-1.429.219-1.883.65-.16.15-.292.329-.4.523L9.657 12.72c.08-.282.121-.595.121-.94 0-.344-.04-.656-.117-.935l3.801-1.9c.094.172.209.327.343.464.457.468 1.106.703 1.936.703.83 0 1.48-.235 1.936-.703.444-.453.67-1.099.67-1.912 0-.85-.243-1.513-.723-1.967-.454-.43-1.086-.648-1.883-.648-.796 0-1.428.218-1.882.648-.48.458-.723 1.12-.723 1.967 0 .296.03.565.088.817l-3.829 1.916a2.01 2.01 0 00-.336-.414c-.454-.43-1.086-.649-1.883-.649-.796 0-1.428.219-1.882.65-.48.456-.723 1.118-.723 1.966 0 .813.226 1.458.67 1.912.456.467 1.105.703 1.935.703.83 0 1.48-.236 1.937-.703.104-.107.198-.225.279-.353l3.832 1.916a3.575 3.575 0 00-.088.807c0 .813.225 1.459.669 1.912.457.468 1.106.703 1.936.703.83 0 1.48-.235 1.936-.703.444-.453.67-1.099.67-1.912 0-.85-.243-1.513-.723-1.967-.458-.433-1.09-.652-1.886-.652zm0-7.892c1.284 0 1.933.655 1.933 1.943 0 .632-.162 1.12-.478 1.442-.326.333-.813.5-1.455.5-.642 0-1.13-.167-1.456-.5-.316-.326-.477-.81-.477-1.442 0-1.288.652-1.943 1.933-1.943zm-8.565 8.171c-.642 0-1.13-.168-1.455-.5-.316-.327-.478-.81-.478-1.442 0-1.291.65-1.943 1.933-1.943.877 0 1.459.306 1.738.914.007.027.013.054.027.08.007.01.013.02.02.034a2.6 2.6 0 01.148.918c0 .37-.054.686-.165.954 0 .004-.003.004-.003.007-.007.017-.014.03-.02.047a1.423 1.423 0 01-.293.437c-.322.326-.81.494-1.452.494zm10.02 3.782c-.326.333-.813.5-1.455.5-.642 0-1.13-.167-1.456-.5-.316-.326-.477-.81-.477-1.442 0-.323.04-.605.121-.85.007-.017.013-.03.017-.048.252-.695.854-1.048 1.795-1.048 1.284 0 1.933.655 1.933 1.943 0 .635-.162 1.119-.478 1.445z"/><path d="M11.778 23.543c-3.768 0-6.682-.968-8.665-2.877-2.058-1.984-3.1-4.972-3.1-8.888 0-3.912 1.042-6.904 3.1-8.887C5.093.98 8.01.013 11.778.013c3.768 0 6.683.969 8.666 2.878 2.057 1.983 3.099 4.971 3.099 8.887 0 3.916-1.042 6.904-3.1 8.888-1.982 1.909-4.897 2.877-8.665 2.877zm0-22.857c-3.59 0-6.346.904-8.198 2.689C1.66 5.224.686 8.054.686 11.778c0 3.725.975 6.555 2.894 8.404 1.852 1.784 4.612 2.689 8.198 2.689 3.587 0 6.346-.905 8.198-2.69 1.92-1.848 2.895-4.678 2.895-8.403 0-3.724-.975-6.554-2.895-8.403-1.852-1.782-4.611-2.69-8.198-2.69z"/></g></g></svg>
